X:1
T:Title
%%score [ ( 1 2 ) ( 3 4 ) ] { ( 5 6 ) | 7 }
L:1/8
Q:1/4=120
M:4/4
K:Bb
V:1 treble nm="Midi_74" snm=" "
V:2 treble 
V:3 bass nm="Midi_74"
V:4 bass 
V:5 treble nm="Org."
V:6 treble 
V:7 bass 
V:1
 (D6 E2) | (F2 G2) (_A2 G2) |{G} F8 || (B6 c2) | (d2 e2) (f2 e2) | %5
 e4"^William Henry Havergal\n(1793-1870)" d4 | e8 || (A6 B2) | (c2 d2) (e2 d2) |{d} c8 || (F6 G2) | %11
 (A2 B2) (c2 B2) | B4 A4 | B8 |] %14
V:2
 (B,6 C2) | (D2 E2) (F2 E2) |{E} D8 || (D6 E2) | (F2 G2) (_A2 G2) | (F2 G2) (_A2 B2) | G8 || F8 | %8
 F4 F4 | F8 || C8 | (C2 B,2) (A,2 B,2) | (C2 D2) (E2 F2) | D8 |] %14
V:3
 B,8 | B,4 B,4 | B,8 || B,8 | B,4 B,4 | B,4 B,4 | B,8 || (F,6 G,2) | (A,2 B,2) (C2 B,2) | %9
{B,} A,8 || (A,6 B,2) | (C2 D2) (E2 D2) | C4 C4 | B,8 |] %14
V:4
 B,,8 | B,,4 B,,4 | B,,8 || B,,8 | B,,4 B,,4 | B,,4 B,,4 | E,8 || F,8 | F,4 F,4 | F,8 || F,8 | %11
 F,4 F,4 | F,4 F,4 | B,,8 |] %14
V:5
 D6 E2 | F2 G2 _A2 G2 |{G} F8 || B6 c2 | d2 e2 f2 e2 | e4 d4 | e8 || A6 B2 | c2 d2 e2 d2 |{d} c8 || %10
 F6 G2 | A2 B2 c2 B2 | B4 A4 | B8 |] %14
V:6
 B,6 C2 | D2 E2 F2 E2 |{E} D8 || D6 E2 | F2 G2 _A2 G2 | F2 G2 _A2 B2 | G8 || F6 G2 | A2 B2 c2 B2 | %9
{B} A8 || A,6 B,2 | C2 D2 E2 D2 | C2 D2 E2 F2 | D8 |] %14
V:7
"^Ped." [B,,,B,,]8 | [B,,,B,,]4 [B,,,B,,]4 | [B,,,B,,]8 || [B,,,B,,]8 | [B,,,B,,]4 [B,,,B,,]4 | %5
 [B,,,B,,]4 [B,,,B,,]4 | [E,,E,]8 || [F,,F,]8 | [F,,F,]4 [F,,F,]4 | [F,,F,]8 || [F,,F,]8 | %11
 [F,,F,]4 [F,,F,]4 | [F,,F,]4 [F,,F,]4 | [B,,,B,,]8 |] %14

